src/assets/picto/acquisition.svg

<svg width="78" height="76" viewBox="0 0 78 76" fill="none" xmlns="http://www.w3.org/2000/svg">
<g clip-path="url(#clip0_2343_2)">
<path d="M35.0792 12.0799C33.4919 13.6131 31.9046 15.132 30.3173 16.6651C29.5395 17.4102 28.8093 18.227 27.9522 18.9004C26.3649 20.1327 24.5077 20.1041 23.1585 18.9004C21.8252 17.7111 21.6982 15.9774 23.0315 14.5731C24.6347 12.868 26.349 11.2632 28.0315 9.62969C30.8887 6.86423 33.73 4.09877 36.6188 1.34764C38.5077 -0.457788 39.6506 -0.429131 41.5077 1.3763C45.73 5.48867 49.9681 9.60104 54.2062 13.6991C55.0792 14.5445 55.8887 15.3899 55.8569 16.6651C55.8252 19.0437 53.2538 20.5196 50.9363 19.4019C50.222 19.0581 49.6188 18.5136 49.0633 17.9691C47.1109 16.092 45.1903 14.1863 43.2696 12.2805C43.1109 12.1229 42.9046 12.0083 42.5871 11.7647C42.5554 12.2089 42.5077 12.4811 42.5077 12.739C42.5077 18.4133 42.4442 24.0731 42.5236 29.7473C42.603 35.7368 47.7776 40.322 54.2696 40.3507C55.3331 40.3507 55.9681 40.1501 56.476 39.1757C58.2696 35.6795 61.4284 33.6305 65.6188 33.2579C72.603 32.6274 77.7776 37.9434 78.0157 42.7149C78.3014 48.4894 73.8411 52.3869 69.9363 53.3182C65.2379 54.4502 59.3173 53.0746 56.8569 48.3891C56.1585 47.0565 55.2379 46.6267 53.6347 46.598C44.9839 46.4977 37.0792 40.3937 35.9046 32.6847C35.3966 29.3605 35.5554 25.9502 35.4919 22.5829C35.4284 19.1584 35.4919 15.7194 35.4919 12.2949L35.1109 12.0513L35.0792 12.0799ZM66.6665 39.4909C64.1268 39.4909 62.2696 41.1817 62.2538 43.503C62.2538 45.7526 64.1744 47.5437 66.6347 47.5867C69.1268 47.6297 71.2855 45.6953 71.222 43.46C71.1585 41.2677 69.1268 39.4909 66.6665 39.4909Z" fill="url(#paint0_linear_2343_2)"/>
<path d="M33.5081 35.2633C34.0478 36.1517 34.3018 36.4669 34.4605 36.8251C35.8732 40.0491 38.1272 42.6999 41.1431 44.8206C42.1589 45.537 42.5399 46.3251 42.5081 47.4571C42.4288 49.6924 42.5558 51.9277 42.4605 54.163C42.4129 55.3953 42.8097 56.126 44.1113 56.6992C47.5716 58.2467 49.524 60.8259 50.2383 64.2935C51.0161 68.1049 48.6669 73.206 43.5558 75.169C37.9208 77.3327 31.397 75.169 28.8415 70.2972C26.1748 65.2105 28.27 59.35 33.778 56.7708C35.1113 56.1404 35.5716 55.4239 35.5399 54.1057C35.4446 51.068 35.5081 48.0303 35.5081 45.0069C35.5081 44.5054 35.4446 43.9895 35.4129 43.3161C34.8732 43.5597 34.4923 43.703 34.1431 43.9036C30.9685 45.752 27.5081 46.7407 23.7304 46.6977C22.6192 46.6977 22.0002 47.0702 21.524 47.9729C19.6986 51.3832 16.6827 53.3749 12.4923 53.7474C7.0002 54.2346 0.746227 50.982 0.0636877 44.749C-0.587106 38.6735 3.88908 33.7874 10.6192 33.3576C15.1589 33.0567 18.7462 34.8621 21.0954 38.43C22.4764 40.5363 22.9526 40.7656 25.6351 40.2927C28.397 39.7912 30.7938 38.7165 32.6034 36.7392C32.9208 36.3953 33.1113 35.9511 33.5081 35.3063V35.2633ZM15.7304 43.6313C15.778 41.2814 14.0319 39.5763 11.4764 39.4903C8.85734 39.4186 7.01607 40.9805 6.9367 43.3304C6.85734 45.7806 8.65099 47.5574 11.2383 47.5861C13.7304 47.6147 15.6827 45.8953 15.7145 43.6313H15.7304ZM39.0637 61.7716C36.4764 61.7573 34.5558 63.3907 34.5081 65.669C34.4446 67.9473 36.524 69.8817 39.0161 69.853C41.4605 69.8387 43.4129 68.0333 43.4288 65.7837C43.4446 63.4767 41.6034 61.7859 39.0637 61.7573V61.7716Z" fill="url(#paint1_linear_2343_2)"/>
</g>
<defs>
<linearGradient id="paint0_linear_2343_2" x1="22.0792" y1="26.8672" x2="77.9998" y2="26.8672" gradientUnits="userSpaceOnUse">
<stop stop-color="#AE8ABE"/>
<stop offset="1" stop-color="#8390C8"/>
</linearGradient>
<linearGradient id="paint1_linear_2343_2" x1="0.00019568" y1="54.6358" x2="50.3812" y2="54.6358" gradientUnits="userSpaceOnUse">
<stop stop-color="#AE8ABE"/>
<stop offset="1" stop-color="#8390C8"/>
</linearGradient>
<clipPath id="clip0_2343_2">
<rect width="78" height="76" fill="white"/>
</clipPath>
</defs>
</svg>

<?xml version="1.0" encoding="UTF-8"?><svg id="a" xmlns="http://www.w3.org/2000/svg" viewBox="0 0 78.03 76"><path d="M35.08,12.07c-1.59,1.53-3.17,3.05-4.76,4.59-.78,.75-1.51,1.56-2.37,2.24-1.59,1.23-3.44,1.2-4.79,0-1.33-1.19-1.46-2.92-.13-4.33,1.6-1.71,3.32-3.31,5-4.94,2.86-2.77,5.7-5.53,8.59-8.28,1.89-1.81,3.03-1.78,4.89,.03,4.22,4.11,8.46,8.22,12.7,12.32,.87,.85,1.68,1.69,1.65,2.97-.03,2.38-2.6,3.85-4.92,2.74-.71-.34-1.32-.89-1.87-1.43-1.95-1.88-3.87-3.78-5.79-5.69-.16-.16-.37-.27-.68-.52-.03,.44-.08,.72-.08,.97,0,5.67-.06,11.33,.02,17.01,.08,5.99,5.25,10.57,11.75,10.6,1.06,0,1.7-.2,2.21-1.17,1.79-3.5,4.95-5.55,9.14-5.92,6.98-.63,12.16,4.69,12.4,9.46,.29,5.77-4.17,9.67-8.08,10.6-4.7,1.13-10.62-.24-13.08-4.93-.7-1.33-1.62-1.76-3.22-1.79-8.65-.1-16.56-6.2-17.73-13.91-.51-3.32-.35-6.73-.41-10.1-.06-3.42,0-6.86,0-10.29l-.38-.24-.03,.03Zm31.59,27.41c-2.54,0-4.4,1.69-4.41,4.01,0,2.25,1.92,4.04,4.38,4.08,2.49,.04,4.65-1.89,4.59-4.13-.06-2.19-2.1-3.97-4.56-3.97Z" style="fill:#fff;"/><path d="M33.51,35.26c.54,.89,.79,1.2,.95,1.56,1.41,3.22,3.67,5.87,6.68,8,1.02,.72,1.4,1.5,1.36,2.64-.08,2.24,.05,4.47-.05,6.71-.05,1.23,.35,1.96,1.65,2.54,3.46,1.55,5.41,4.13,6.13,7.59,.78,3.81-1.57,8.91-6.68,10.88-5.64,2.16-12.16,0-14.71-4.87-2.67-5.09-.57-10.95,4.94-13.53,1.33-.63,1.79-1.35,1.76-2.67-.1-3.04-.03-6.08-.03-9.1,0-.5-.06-1.02-.1-1.69-.54,.24-.92,.39-1.27,.59-3.17,1.85-6.64,2.84-10.41,2.79-1.11,0-1.73,.37-2.21,1.28-1.83,3.41-4.84,5.4-9.03,5.77-5.49,.49-11.75-2.77-12.43-9-.65-6.08,3.83-10.96,10.56-11.39,4.54-.3,8.13,1.5,10.48,5.07,1.38,2.11,1.86,2.34,4.54,1.86,2.76-.5,5.16-1.58,6.97-3.55,.32-.34,.51-.79,.9-1.43v-.04Zm-17.78,8.37c.05-2.35-1.7-4.06-4.25-4.14-2.62-.07-4.46,1.49-4.54,3.84-.08,2.45,1.71,4.23,4.3,4.26,2.49,.03,4.44-1.69,4.48-3.95h.02Zm23.33,18.14c-2.59-.01-4.51,1.62-4.56,3.9-.06,2.28,2.02,4.21,4.51,4.18,2.44-.01,4.4-1.82,4.41-4.07,.02-2.31-1.83-4-4.37-4.03h0Z" style="fill:#fff;"/></svg>
